X:273
T:Girl I Left Behind Me
M:2/4
L:1/8
K:G
|:g/f/|"G"ed B3/2G/|"C"A/B/A/G/ E3/2D/|"G"GG G/A/B/c/|d2 Bg/f/| \
"G"ed c3/2A/|"C"AG E3/2G/|"D"FA DE/F/|"G"G2 G:|
|:d/c/|"G"Bd df|gd BG|Bd ef|"C"g2 "D"fg/f/|"G"ed c3/2A/| \
"C"BG E3/2G/|"D"FA DE/F/|"G"G2 G:|
